my-app/src/app/media/Logo_zion.svg

<svg width="45" height="15" viewBox="0 0 45 15" fill="none" xmlns="http://www.w3.org/2000/svg">
<path d="M11.8447 7.43823L1.87291 12.4336H12.8019V14.1523H1.8566C0.915709 14.1523 0.154297 13.3745 0.154297 12.4336C0.154297 11.781 0.551319 11.2018 1.11422 10.9135L11.067 5.91812H0.154297V4.21582H11.1023C12.0242 4.21582 12.8046 4.97451 12.8046 5.91812C12.8046 6.60611 12.3886 7.16629 11.8447 7.43823Z" fill="white"/>
<path d="M14.5059 4.22656H16.2082V14.1603H14.5059V4.22656Z" fill="white"/>
<path d="M30.5566 7.80283L30.5375 10.5521C30.5185 12.5236 28.944 14.1525 26.9725 14.1525H21.4903C19.5188 14.1525 17.9062 12.5236 17.9062 10.5521V7.80283C17.9062 5.83131 19.5161 4.21875 21.4903 4.21875H26.9725C28.944 4.21875 30.5375 5.82859 30.5566 7.80283ZM28.838 7.80283C28.838 6.7722 28.0058 5.92105 26.9752 5.92105H21.493C20.4624 5.92105 19.6303 6.7722 19.6303 7.80283V10.5521C19.6303 11.5827 20.4624 12.4338 21.493 12.4338H26.9752C28.0058 12.4338 28.838 11.5827 28.838 10.5521V7.80283Z" fill="white"/>
<path d="M44.9067 7.81064V14.163H43.2044V7.81064C43.2044 6.78001 42.3532 5.92886 41.3416 5.92886H33.9777V14.163H32.2754V4.22656H41.3416C43.2968 4.22656 44.9067 5.83641 44.9067 7.81064Z" fill="white"/>
<path d="M27.9197 0.827148H20.5449V2.52673H27.9197V0.827148Z" fill="white"/>
</svg>

<svg xmlns="http://www.w3.org/2000/svg" width="45" height="15" fill="none"><path fill="#fff" d="m11.845 7.438-9.972 4.996h10.929v1.718H1.857c-.941 0-1.703-.777-1.703-1.718 0-.653.397-1.232.96-1.52l9.953-4.996H.154V4.216h10.948c.922 0 1.703.759 1.703 1.702 0 .688-.416 1.248-.96 1.52M14.506 4.227h1.702v9.933h-1.702zM30.557 7.803l-.02 2.75c-.018 1.97-1.593 3.6-3.564 3.6H21.49c-1.971 0-3.584-1.63-3.584-3.6v-2.75a3.593 3.593 0 0 1 3.584-3.584h5.483c1.971 0 3.565 1.61 3.584 3.584m-1.719 0c0-1.03-.832-1.882-1.863-1.882h-5.482c-1.03 0-1.863.851-1.863 1.882v2.75c0 1.03.832 1.88 1.863 1.88h5.482c1.03 0 1.863-.85 1.863-1.88zM44.907 7.81v6.353h-1.703V7.811c0-1.031-.85-1.882-1.862-1.882h-7.364v8.234h-1.703V4.227h9.067c1.955 0 3.565 1.61 3.565 3.584M27.92.827h-7.375v1.7h7.375z"/></svg>
